img/shopping-cart.svg

<svg enable-background="new 0 0 19.25 19.25" viewBox="0 0 19.25 19.25" xmlns="http://www.w3.org/2000/svg"><g fill="#030104"><path d="m19.006 2.97c-.191-.219-.466-.345-.756-.345h-13.819l-.195-1.164c-.08-.482-.497-.836-.986-.836h-2.25c-.553 0-1 .447-1 1s.447 1 1 1h1.403l1.86 11.164c.008.045.031.082.045.124.016.053.029.103.054.151.032.066.075.122.12.179.031.039.059.078.095.112.058.054.125.092.193.13.038.021.071.049.112.065.116.047.238.075.367.075h11.001c.553 0 1-.447 1-1s-.447-1-1-1h-10.153l-.166-1h11.319c.498 0 .92-.366.99-.858l1-7c.041-.288-.045-.579-.234-.797zm-1.909 1.655-.285 2h-3.562v-2zm-4.847 0v2h-3v-2zm0 3v2h-3v-2zm-4-3v2h-3c-.053 0-.101.015-.148.03l-.338-2.03zm-2.986 3h2.986v2h-2.653zm7.986 2v-2h3.418l-.285 2z"/><circle cx="6.75" cy="17.125" r="1.5"/><circle cx="15.75" cy="17.125" r="1.5"/></g></svg>

<?xml version="1.0" encoding="iso-8859-1"?>
<!-- Generator: Adobe Illustrator 18.1.1, SVG Export Plug-In . SVG Version: 6.00 Build 0)  -->
<svg version="1.1" id="Capa_1" xmlns="http://www.w3.org/2000/svg" xmlns:xlink="http://www.w3.org/1999/xlink" x="0px" y="0px"
	 viewBox="0 0 19.25 19.25" style="enable-background:new 0 0 19.25 19.25;" xml:space="preserve">
<g>
	<g id="Layer_1_107_">
		<g>
			<path style="fill:#030104;" d="M19.006,2.97c-0.191-0.219-0.466-0.345-0.756-0.345H4.431L4.236,1.461
				C4.156,0.979,3.739,0.625,3.25,0.625H1c-0.553,0-1,0.447-1,1s0.447,1,1,1h1.403l1.86,11.164c0.008,0.045,0.031,0.082,0.045,0.124
				c0.016,0.053,0.029,0.103,0.054,0.151c0.032,0.066,0.075,0.122,0.12,0.179c0.031,0.039,0.059,0.078,0.095,0.112
				c0.058,0.054,0.125,0.092,0.193,0.13c0.038,0.021,0.071,0.049,0.112,0.065c0.116,0.047,0.238,0.075,0.367,0.075
				c0.001,0,11.001,0,11.001,0c0.553,0,1-0.447,1-1s-0.447-1-1-1H6.097l-0.166-1H17.25c0.498,0,0.92-0.366,0.99-0.858l1-7
				C19.281,3.479,19.195,3.188,19.006,2.97z M17.097,4.625l-0.285,2H13.25v-2H17.097z M12.25,4.625v2h-3v-2H12.25z M12.25,7.625v2
				h-3v-2H12.25z M8.25,4.625v2h-3c-0.053,0-0.101,0.015-0.148,0.03l-0.338-2.03H8.25z M5.264,7.625H8.25v2H5.597L5.264,7.625z
				 M13.25,9.625v-2h3.418l-0.285,2H13.25z"/>
			<circle style="fill:#030104;" cx="6.75" cy="17.125" r="1.5"/>
			<circle style="fill:#030104;" cx="15.75" cy="17.125" r="1.5"/>
		</g>
	</g>
</g>
<g>
</g>
<g>
</g>
<g>
</g>
<g>
</g>
<g>
</g>
<g>
</g>
<g>
</g>
<g>
</g>
<g>
</g>
<g>
</g>
<g>
</g>
<g>
</g>
<g>
</g>
<g>
</g>
<g>
</g>
</svg>
